!!!OTL: Die elfjaehrige Markgraefin Kyrillischer Text ......
!!!ARE: Europa, Osteuropa, UdSSR, Galizien, Lemken - Gebiet
!!!YOR: 2, S. 294
!!    ????
!!!SCT: Q3053K
!!!YEM: Copyright 1995, estate of Helmut Schaffrath.
**kern
*ICvox
*Ivox
*M4/4
*k[b-]
*F:
{4f
8f
8g
=1
8a
8b-
4cc
4a
4g
=2
2f}
{4cc
8cc
8dd
=3
4ee
4ff
4ee
4dd
=4
2cc}
{4ff
8ff
8cc
=5
4dd
4cc
8dd
8dd
4b-
=6
2a}
{4f
8f
8g
=7
8a
8b-
4cc
8a
8a
4g
=8
2f}
==
!!!AGN: Ballade, Braut - Werbung
!! Melodievergleich zu Q0053 , anderes Lied, textverwandt mit Q0006.
!!!ONB: ESAC (Essen Associative Code) Database: BALLADE
!!!AMT: simple quadruple
!!!AIN: vox
!!!EED: Helmut Schaffrath
!!!EEV: 1.0
*-
